!!!id: BC098
!!!page: 122-123t
!!!COM: Anonymous (Folklore)
!!!PTL@@FR: Les 100 plus belles chansons
!!!OTL:Un p'tit moulin sur la rivière
!!!PUB: La Bonne Chanson, inc.
!!!YEM: On ne peut reproduire, enregistrer ou diffuser en tout ou en partie le présent ouvrage, sous quelque procédé que ce soit, électronique, mécanique, photographique, sonore, magnétique ou autre, sans avoir obtenu au préalable l'autorisation écrite de l'éditrice.
!!!PDT: 2011
!!!SMA: 2012 Bibliothèque nationale du Québec; Biblothèque nationale du Canada
!!!AGN-Laforte: Chanson en laisse (avec refrain), 11:2(8+8), avec répétition à cheval; R:2(5+8,12), with partial rimes suivies (b+b,x)
!!!AGN-type: Chanson de chasse (canard)
!!!AGN-rime: monorime /ɑ̃/ (aa'a)
!!!LYR-elision: Final "e" singulier (Derrièr'); Final "e" pluriel (sort'nt, plum's, dam's); Medial "e" (p'tit).
!!!RNB:
**kern	**text	**text	**text	**text	**text	**text	**text	**text	**text	**text	**text	**text	**text
*clefG2	*	*	*	*	*	*	*	*	*	*	*	*	*
*k[b-]	*	*	*	*	*	*	*	*	*	*	*	*	*
*F:	*	*	*	*	*	*	*	*	*	*	*	*	*
!!LO:TX:a:B:t=Alerte
*M2/4	*	*	*	*	*	*	*	*	*	*	*	*	*
*	*v:1	*v:2	*v:3	*v:4	*v:5	*v:6	*v:7	*v:8	*v:9	*v:10	*v:11	*v:12	*v:13
*	*pline:1	*pline:3	*pline:5	*pline:7	*pline:9	*pline:11	*pline:13	*pline:15	*pline:17	*pline:19	*pline:21	*pline:23	*pline:25
!!LO:TX:a:B:t=Solo
{{8f	Der-	Trois	Le	A-	Vi-	Ô	D'a-	Par	Par	Et	Tou-	Trois	C'est
8f	-rièr'	beaux	fils	-vec	-sa	fils	-voir	des-	les	par	-tes	dam's	pour
8a	chez	ca-	du	son	le	du	tu-	-sous	yeux	le	ses	s'en	en
=1||	=1||	=1||	=1||	=1||	=1||	=1||	=1||	=1||	=1||	=1||	=1||	=1||	=1||
*M3/4	*	*	*	*	*	*	*	*	*	*	*	*	*
4cc	nous	-nards	roi	grand	noir,	roi,	é	l'ail[e]	lui	bec	plum's	vont	fair[e]
4cc	y a-	s'en	s'en	fu-	tu-	tu	mon	il	sort'nt	l'or	s'en	les	un
8dd	t-un	vont	va	-sil	-a	es	ca-	perd	des	et	vont	ra-	lit
8cc	é-	bai-	chas-	d'ar-	le	mé-	-nard	son	dia-	l'ar-	au	-mas-	de
=2||	=2||	=2||	=2||	=2||	=2||	=2||	=2||	=2||	=2||	=2||	=2||	=2||	=2||
*M2/4	*	*	*	*	*	*	*	*	*	*	*	*	*
8a}	-tang,	-gnant,	-sant,	-gent,	blanc,	-chant!	blanc,	sang,	-mants,	-gent,	vent,	-sant,	camp,
*	*rp:ɑ̃	*rp:ɑ̃	*rp:ɑ̃	*rp:ɑ̃	*rp:ɑ̃	*rp:ɑ̃	*rp:ɑ̃	*rp:ɑ̃	*rp:ɑ̃	*rp:ɑ̃	*rp:ɑ̃	*rp:ɑ̃	*rp:ɑ̃
*	*rf:tɑ̃	*rf:ɲɑ̃	*rf:sɑ̃	*rf:ʒɑ̃	*rf:lɑ̃	*rf:ʃɑ̃	*rf:lɑ̃	*rf:sɑ̃	*rf:mɑ̃	*rf:ʒɑ̃	*rf:vɑ̃	*rf:sɑ̃	*rf:kɑ̃
*	*rs:a1-	*rs:a2-	*rs:a3-	*rs:a4-	*rs:a5-	*rs:a6-	*rs:a5-	*rs:a3-	*rs:a7-	*rs:a4-	*rs:a8-	*rs:a3-	*rs:a9-
*	*pline:1r	*pline:3r	*pline:5r	*pline:7r	*pline:9r	*pline:11r	*pline:13r	*pline:15r	*pline:17r	*pline:19r	*pline:21r	*	*
!!LO:TX:a:B:t=Choeur
{8f	Der-	Trois	Le	A-	Vi-	Ô	D'a-	Par	Par	Et	Tou-	Trois	C'est
8f	-rièr'	beaux	fils	-vec	-sa	fils	-voir	des-	les	par	-tes	dam's	pour
8a	chez	ca-	du	son	le	du	tu-	-sous	yeux	le	ses	s'en	en
!!LO:PB:g=original
=3||	=3||	=3||	=3||	=3||	=3||	=3||	=3||	=3||	=3||	=3||	=3||	=3||	=3||
*M3/4	*	*	*	*	*	*	*	*	*	*	*	*	*
4cc	nous	-nards	roi	grand	noir,	roi,	-é	l'ail[e]	lui	bec	plum's	vont	fair[e]
4cc	y a-	s'en	s'en	fu-	tu-	tu	mon	il	sort'nt	l'or	s'en	les	un
8dd	-t-un	vont	va	-sil	-a	es	ca-	perd	des	et	vont	ra-	lit
8cc	é-	bai-	chas-	d'ar-	le	mé-	-nard	son	dia-	l'ar-	au	-mas-	de
=4||	=4||	=4||	=4||	=4||	=4||	=4||	=4||	=4||	=4||	=4||	=4||	=4||	=4||
*M2/4	*	*	*	*	*	*	*	*	*	*	*	*	*
8a}	tang;	-gnant;	-sant;	-gent;	blanc;	-chant!	blanc.	sang.	-mants.	-gent.	vent.	-sant.	camp.
*	*rp:ɑ̃	*rp:ɑ̃	*rp:ɑ̃	*rp:ɑ̃	*rp:ɑ̃	*rp:ɑ̃	*rp:ɑ̃	*rp:ɑ̃	*rp:ɑ̃	*rp:ɑ̃	*rp:ɑ̃	*rp:ɑ̃	*rp:ɑ̃
*	*rf:tɑ̃	*rf:ɲɑ̃	*rf:sɑ̃	*rf:ʒɑ̃	*rf:lɑ̃	*rf:ʃɑ̃	*rf:lɑ̃	*rf:sɑ̃	*rf:mɑ̃	*rf:ʒɑ̃	*rf:vɑ̃	*rf:sɑ̃	*rf:kɑ̃
*	*rs:a1-	*rs:a2-	*rs:a3-	*rs:a4-	*rs:a5-	*rs:a6-	*rs:a5-	*rs:a3-	*rs:a7-	*rs:a4-	*rs:a8-	*rs:a3-	*rs:a9-
*	*pline:2	*pline:4	*pline:6	*pline:8	*pline:10	*pline:12	*pline:14	*pline:16	*pline:18	*pline:20	*pline:22	*	*
!!LO:TX:a:B:t=Solo
{8a	Trois	Le	A-	Vi-	Ô	D'a-	Par	Par	Et	Tou-	Trois	C'est	Pour
8a	beaux	fils	-vec	-sa	fils	-voir	des-	les	par	-tes	dam's	pour	y
8cc	ca-	du	son	le	du	tu-	-sous	yeux	le	ses	s'en	en	cou-
=5	=5	=5	=5	=5	=5	=5	=5	=5	=5	=5	=5	=5	=5
8b-	-nards	roi	grand	noir,	roi,	-é	l'ail[e]	lui	bec	plum's	vont	fair[e]	-cher
8a	s'en	s'en	fu-	tu-	tu	mon	il	sort'nt	l'or	s'en	les	un	tous
8g	vont	va	sil	-a	es	ca-	perd	des	et	vont	ra-	lit	les
8g	bai-	chas-	d'ar-	le	mé-	-nard	son	dia-	l'ar-	au	mas-	de	pas-
!!LO:PB:g=original
=6	=6	=6	=6	=6	=6	=6	=6	=6	=6	=6	=6	=6	=6
8f}}	-gant.	-sant.	-gent.	blanc.	-chant!	blanc.	sang.	-mants.	-gent.	vent.	-sant.	camp.	-sants.
*	*rp:ɑ̃	*rp:ɑ̃	*rp:ɑ̃	*rp:ɑ̃	*rp:ɑ̃	*rp:ɑ̃	*rp:ɑ̃	*rp:ɑ̃	*rp:ɑ̃	*rp:ɑ̃	*rp:ɑ̃	*rp:ɑ̃	*rp:ɑ̃
*	*rf:ɲɑ̃	*rf:sɑ̃	*rf:ʒɑ̃	*rf:lɑ̃	*rf:ʃɑ̃	*rf:lɑ̃	*rf:sɑ̃	*rf:mɑ̃	*rf:ʒɑ̃	*rf:vɑ̃	*rf:sɑ̃	*rf:kɑ̃	*rf:sɑ̃
*	*rs:a2-	*rs:a3-	*rs:a4-	*rs:a5-	*rs:a6-	*rs:a5-	*rs:a3-	*rs:a7-	*rs:a4-	*rs:a8-	*rs:a3-	*rs:a9-	*rs:a3-
=||:	=||:	=||:	=||:	=||:	=||:	=||:	=||:	=||:	=||:	=||:	=||:	=||:	=||:
*>Refrain	*>Refrain	*>Refrain	*>Refrain	*>Refrain	*>Refrain	*>Refrain	*>Refrain	*>Refrain	*>Refrain	*>Refrain	*>Refrain	*>Refrain	*>Refrain
*	*pline:R1Ha	*	*	*	*	*	*	*	*	*	*	*	*
!!LO:TX:a:B:t=REFRAIN
{{16f	Je	.	.	.	.	.	.	.	.	.	.	.	.
16g	me	.	.	.	.	.	.	.	.	.	.	.	.
8a	suis	.	.	.	.	.	.	.	.	.	.	.	.
8f	fait	.	.	.	.	.	.	.	.	.	.	.	.
=7	=7	=7	=7	=7	=7	=7	=7	=7	=7	=7	=7	=7	=7
4a}	fair[e]	.	.	.	.	.	.	.	.	.	.	.	.
*	*rp:ɛː	*	*	*	*	*	*	*	*	*	*	*	*
*	*rf:ɛːʁ	*	*	*	*	*	*	*	*	*	*	*	*
*	*rp:b1	*	*	*	*	*	*	*	*	*	*	*	*
*	*pline:R1Hb	*	*	*	*	*	*	*	*	*	*	*	*
{8a	Un	.	.	.	.	.	.	.	.	.	.	.	.
16a	p'tit	.	.	.	.	.	.	.	.	.	.	.	.
16a	mou-	.	.	.	.	.	.	.	.	.	.	.	.
=8	=8	=8	=8	=8	=8	=8	=8	=8	=8	=8	=8	=8	=8
8a	-lin	.	.	.	.	.	.	.	.	.	.	.	.
8a	sur	.	.	.	.	.	.	.	.	.	.	.	.
8g	la	.	.	.	.	.	.	.	.	.	.	.	.
8g	ri-	.	.	.	.	.	.	.	.	.	.	.	.
!!LO:PB:g=original
=9	=9	=9	=9	=9	=9	=9	=9	=9	=9	=9	=9	=9	=9
8f}}	vièr[e]	.	.	.	.	.	.	.	.	.	.	.	.
*	*rp:ɛː	*	*	*	*	*	*	*	*	*	*	*	*
*	*rf:ɛːʁ	*	*	*	*	*	*	*	*	*	*	*	*
*	*rs:b1	*	*	*	*	*	*	*	*	*	*	*	*
*	*pline:R2	*	*	*	*	*	*	*	*	*	*	*	*
{8g	Et	.	.	.	.	.	.	.	.	.	.	.	.
8a	puis	.	.	.	.	.	.	.	.	.	.	.	.
8f	a-	.	.	.	.	.	.	.	.	.	.	.	.
=10	=10	=10	=10	=10	=10	=10	=10	=10	=10	=10	=10	=10	=10
8a	-près:	.	.	.	.	.	.	.	.	.	.	.	.
8r}	.	.	.	.	.	.	.	.	.	.	.	.	.
{8a	un	.	.	.	.	.	.	.	.	.	.	.	.
16a	p'tit	.	.	.	.	.	.	.	.	.	.	.	.
16a	ba-	.	.	.	.	.	.	.	.	.	.	.	.
=11	=11	=11	=11	=11	=11	=11	=11	=11	=11	=11	=11	=11	=11
8a	-teau	.	.	.	.	.	.	.	.	.	.	.	.
8a	pour	.	.	.	.	.	.	.	.	.	.	.	.
8g	pas-	.	.	.	.	.	.	.	.	.	.	.	.
8g	-ser	.	.	.	.	.	.	.	.	.	.	.	.
=12	=12	=12	=12	=12	=12	=12	=12	=12	=12	=12	=12	=12	=12
8f}}	l'eau.	.	.	.	.	.	.	.	.	.	.	.	.
*	*rp:o	*	*	*	*	*	*	*	*	*	*	*	*
*	*rf:x	*	*	*	*	*	*	*	*	*	*	*	*
*	*rs:x	*	*	*	*	*	*	*	*	*	*	*	*
=:||	=:||	=:||	=:||	=:||	=:||	=:||	=:||	=:||	=:||	=:||	=:||	=:||	=:||
*-	*-	*-	*-	*-	*-	*-	*-	*-	*-	*-	*-	*-	*-
!!!EED: Ève Poudrier
!!!EEV: 2025/08/06
